packages/core/src/svgs/tokens/mono/IONX.svg

<svg width="24" height="24" viewBox="0 0 24 24" fill="none" xmlns="http://www.w3.org/2000/svg">
<path d="M12.2828 13.6957C12.7328 13.6957 13.1644 13.5168 13.4827 13.1986C13.8009 12.8805 13.9796 12.4489 13.9796 11.9989C13.9796 11.5488 13.8009 11.1171 13.4827 10.7989C13.1644 10.4807 12.7328 10.3019 12.2828 10.3019C11.8327 10.3019 11.4012 10.4807 11.083 10.7989C10.7648 11.1171 10.586 11.5488 10.586 11.9989C10.586 12.4489 10.7648 12.8805 11.083 13.1986C11.4012 13.5168 11.8327 13.6957 12.2828 13.6957ZM10.0203 5.77708C10.3204 5.77708 10.6081 5.65791 10.8202 5.44576C11.0324 5.23362 11.1516 4.94589 11.1516 4.64587C11.1516 4.34584 11.0324 4.05812 10.8202 3.84597C10.6081 3.63384 10.3204 3.51465 10.0203 3.51465C9.72034 3.51465 9.43262 3.63384 9.22049 3.84597C9.00833 4.05812 8.88916 4.34584 8.88916 4.64587C8.88916 4.94589 9.00833 5.23362 9.22049 5.44576C9.43262 5.65791 9.72034 5.77708 10.0203 5.77708ZM20.1731 12.5644C19.798 12.5644 19.4384 12.7134 19.1732 12.9785C18.908 13.2438 18.7591 13.6034 18.7591 13.9785C18.7591 14.3534 18.908 14.7131 19.1732 14.9783C19.4384 15.2435 19.798 15.3925 20.1731 15.3925C20.5482 15.3925 20.9078 15.2435 21.1729 14.9783C21.4381 14.7131 21.5871 14.3534 21.5871 13.9785C21.5871 13.6034 21.4381 13.2438 21.1729 12.9785C20.9078 12.7134 20.5482 12.5644 20.1731 12.5644Z" fill="white"/>
<path d="M17.9955 8.8482C18.776 6.45 18.6742 4.55521 17.5543 3.81426C16.31 3.01109 14.2002 3.88213 12.0113 5.93529C11.836 5.77127 11.6606 5.61855 11.4909 5.4715C11.4009 5.6736 11.2721 5.85613 11.112 6.00883C11.2533 6.13326 11.406 6.2577 11.5362 6.38779C10.9705 6.95906 10.4389 7.55859 9.94111 8.18643C8.83823 8.26562 7.73528 8.42963 6.66062 8.68416C5.9932 6.62534 6.01018 5.01335 6.88122 4.44209C7.07485 4.33113 7.2891 4.26086 7.51084 4.23558C7.73258 4.21029 7.95715 4.23052 8.1708 4.29503C8.23868 4.06879 8.35179 3.85951 8.51016 3.67286C7.69003 3.42964 6.98302 3.45792 6.44003 3.81992C5.32013 4.55521 5.22397 6.45 6.00451 8.8482C3.54412 9.53827 2 10.6694 2 12.0042C2 13.3392 3.54412 14.459 6.00451 15.1548C5.93664 15.3641 5.87442 15.5676 5.82352 15.7712H5.91968C6.11198 15.7712 6.30428 15.7996 6.48529 15.8618C6.53619 15.6864 6.58709 15.5054 6.64931 15.3245C7.72963 15.5676 8.83257 15.7316 9.94111 15.8051C10.4417 16.4333 10.9759 17.0338 11.5418 17.6038C9.63573 19.3629 7.84841 20.1887 6.88122 19.5496C6.71961 19.4413 6.58432 19.2984 6.48529 19.1309C6.23642 19.2158 5.97623 19.2442 5.71605 19.2046C5.8518 19.6005 6.11198 19.9398 6.45134 20.1774C7.69569 20.9975 9.79977 20.1264 12.0056 18.0619C14.2002 20.1264 16.3043 21.0031 17.5543 20.1774C18.6799 19.4421 18.776 17.5472 17.9955 15.1434C18.2217 15.0869 18.448 15.0133 18.6572 14.9454C18.5215 14.7702 18.4253 14.5722 18.3631 14.3629L17.7693 14.5438C17.4368 13.6728 17.0437 12.826 16.5927 12.0099C17.0452 11.1955 17.4412 10.347 17.7693 9.47598C19.8789 10.0587 21.2307 10.9862 21.2307 12.0099C21.2307 12.1967 21.1854 12.3776 21.1063 12.5416C21.3156 12.6943 21.491 12.8923 21.6154 13.1185C21.8585 12.7961 21.9943 12.4058 22 12.0042C22 10.6694 20.4559 9.53827 17.9955 8.8482ZM11.9999 6.84028C12.3959 7.23621 12.7975 7.67172 13.1822 8.14117C12.7918 8.12422 12.3903 8.11289 11.9999 8.11289C11.604 8.11289 11.1969 8.11289 10.8235 8.14117C11.1969 7.67172 11.5985 7.23621 11.9999 6.84028ZM9.39818 8.87082C8.81417 9.65797 8.27231 10.4754 7.77488 11.3199C7.43133 10.6598 7.12724 9.97986 6.86424 9.28372C7.69569 9.09706 8.54411 8.96131 9.39252 8.87648L9.39818 8.87082ZM6.21945 14.527C4.10972 13.95 2.75791 13.0224 2.75791 11.9987C2.75791 10.9748 4.11537 10.0587 6.21945 9.46476C6.55319 10.3362 6.94822 11.183 7.40157 11.9987C6.94909 12.8131 6.55316 13.6616 6.22511 14.5326L6.21945 14.527ZM6.85858 14.6965C7.11877 14.0009 7.4242 13.3221 7.76356 12.6604C8.06333 13.1581 8.35746 13.6559 8.71379 14.1536C8.94004 14.493 9.16628 14.8098 9.39252 15.1152C8.54411 15.0303 7.69569 14.889 6.85858 14.6965ZM9.24547 13.8029C8.85042 13.2172 8.47688 12.6173 8.12555 12.0042C8.76027 10.8908 9.4748 9.82453 10.2635 8.81425C11.4181 8.73665 12.5763 8.73665 13.7308 8.81425C14.5195 9.82255 15.2341 10.8868 15.8688 11.9987C15.2358 13.112 14.5232 14.1781 13.7365 15.1887C12.5818 15.2602 11.4239 15.2602 10.2692 15.1887C9.92422 14.7475 9.58483 14.2837 9.25112 13.7973L9.24547 13.8029ZM10.8066 15.8561C11.1912 15.8731 11.5871 15.8788 11.983 15.8788C12.379 15.8788 12.7862 15.8788 13.1651 15.8561C12.7692 16.3255 12.3676 16.761 11.983 17.157C11.5985 16.761 11.1969 16.3255 10.8066 15.8561ZM17.1244 19.5496C16.1628 20.183 14.37 19.3629 12.4638 17.6038C13.0293 17.0325 13.5667 16.4331 14.0644 15.8051C15.173 15.726 16.2704 15.562 17.345 15.3131C18.0125 17.3663 17.9955 18.967 17.1244 19.5496ZM17.1244 14.691C16.293 14.889 15.4445 15.0303 14.5905 15.1095C15.177 14.3241 15.7189 13.5065 16.2138 12.6604C16.5593 13.3204 16.8652 14.0004 17.1301 14.6965L17.1244 14.691ZM16.2195 11.3256C15.9253 10.8392 15.6312 10.3358 15.2806 9.83799C15.0542 9.5099 14.828 9.18756 14.5962 8.87648C15.4445 8.96131 16.293 9.10271 17.1301 9.29503C16.8698 9.99068 16.5644 10.6694 16.2251 11.3312L16.2195 11.3256ZM17.3506 8.68416C16.2704 8.42963 15.173 8.26562 14.0701 8.18643C13.5697 7.55823 13.0353 6.95779 12.4695 6.38779C14.37 4.62873 16.1628 3.80861 17.1301 4.44774C17.9955 5.01335 18.0125 6.62534 17.345 8.68416H17.3506Z" fill="white"/>
<path d="M7.75773 17.9376C7.75773 17.5625 7.60875 17.2028 7.34358 16.9376C7.0784 16.6724 6.71872 16.5234 6.3437 16.5234C5.96868 16.5234 5.60902 16.6724 5.34384 16.9376C5.07866 17.2028 4.92969 17.5625 4.92969 17.9376C4.92969 18.3125 5.07866 18.6721 5.34384 18.9374C5.60902 19.2025 5.96868 19.3515 6.3437 19.3515C6.71872 19.3515 7.0784 19.2025 7.34358 18.9374C7.60875 18.6721 7.75773 18.3125 7.75773 17.9376Z" fill="white"/>
</svg>

<svg xmlns="http://www.w3.org/2000/svg" width="24" height="24" fill="none" viewBox="0 0 24 24">
    <path fill="#fff" d="M12.283 13.696a1.697 1.697 0 1 0 0-3.395 1.697 1.697 0 0 0 0 3.395M10.02 5.777a1.131 1.131 0 1 0 0-2.262 1.131 1.131 0 0 0 0 2.262m10.153 6.787a1.414 1.414 0 1 0 0 2.829 1.414 1.414 0 0 0 0-2.829"/>
    <path fill="#fff" d="M17.996 8.848c.78-2.398.678-4.293-.442-5.034-1.244-.803-3.354.068-5.543 2.121q-.264-.244-.52-.463c-.09.202-.219.384-.379.537.141.124.294.249.424.379a22 22 0 0 0-1.595 1.798c-1.103.08-2.206.244-3.28.498-.668-2.059-.65-3.67.22-4.242a1.64 1.64 0 0 1 1.29-.147 1.7 1.7 0 0 1 .34-.622c-.821-.243-1.528-.215-2.071.147-1.12.735-1.216 2.63-.435 5.028C3.545 9.538 2 10.67 2 12.004s1.544 2.455 4.005 3.15q-.103.314-.181.617h.096c.192 0 .384.029.565.09.051-.175.102-.356.164-.537 1.08.244 2.184.408 3.292.481q.751.943 1.6 1.799c-1.905 1.759-3.693 2.585-4.66 1.946a1.3 1.3 0 0 1-.396-.42 1.6 1.6 0 0 1-.769.075c.136.396.396.735.735.972 1.245.82 3.349-.05 5.555-2.115 2.194 2.064 4.298 2.941 5.548 2.115 1.126-.735 1.222-2.63.442-5.034.226-.056.452-.13.661-.198a1.8 1.8 0 0 1-.294-.582l-.594.18a20 20 0 0 0-1.176-2.533c.452-.815.848-1.663 1.176-2.534 2.11.583 3.462 1.51 3.462 2.534 0 .187-.046.368-.125.532.21.152.385.35.51.576.242-.322.378-.712.384-1.114 0-1.335-1.544-2.466-4.004-3.156M12 6.84a18 18 0 0 1 1.182 1.301A27 27 0 0 0 12 8.113c-.396 0-.803 0-1.177.028.374-.47.775-.905 1.177-1.3M9.398 8.87a28 28 0 0 0-1.623 2.45 19 19 0 0 1-.91-2.036c.83-.187 1.68-.323 2.528-.408zM6.22 14.528C4.11 13.951 2.759 13.023 2.759 12s1.357-1.94 3.461-2.534Q6.722 10.774 7.403 12a19 19 0 0 0-1.177 2.534zm.64.17c.26-.696.565-1.375.905-2.037.3.498.593.996.95 1.494.226.339.452.656.679.961a20 20 0 0 1-2.534-.418m2.386-.894a29 29 0 0 1-1.12-1.799 26.6 26.6 0 0 1 2.139-3.19 26 26 0 0 1 3.467 0A26.5 26.5 0 0 1 15.869 12a26.6 26.6 0 0 1-2.133 3.19 28 28 0 0 1-3.467 0 28 28 0 0 1-1.018-1.392zm1.562 2.053c.384.017.78.023 1.176.023s.803 0 1.182-.023c-.396.47-.797.905-1.182 1.301a23 23 0 0 1-1.176-1.3m6.317 3.694c-.961.633-2.754-.187-4.66-1.946a22 22 0 0 0 1.6-1.799 21 21 0 0 0 3.281-.492c.668 2.053.65 3.654-.22 4.237m0-4.859c-.831.198-1.68.34-2.533.418a26 26 0 0 0 1.623-2.449q.518.99.916 2.037zm-.904-3.365c-.295-.487-.589-.99-.94-1.488q-.338-.493-.684-.962a20 20 0 0 1 2.534.419c-.26.696-.566 1.374-.905 2.036zm1.13-2.642a21 21 0 0 0-3.28-.498 22 22 0 0 0-1.6-1.798c1.9-1.76 3.693-2.58 4.66-1.94.866.565.883 2.177.215 4.236z"/>
    <path fill="#fff" d="M7.758 17.938a1.414 1.414 0 1 0-2.829 0 1.414 1.414 0 0 0 2.829 0"/>
</svg>
